src/assets/logo.svg

<svg width="36" height="36" viewBox="0 0 36 36" fill="none" xmlns="http://www.w3.org/2000/svg">
<path d="M0 4C0 1.79086 1.79086 0 4 0H28C30.2091 0 32 1.79086 32 4V8C32 21.2548 21.2548 32 8 32H4C1.79086 32 0 30.2091 0 28V4Z" fill="#F59E0B"/>
<path d="M4 8C4 5.79086 5.79086 4 8 4H32C34.2091 4 36 5.79086 36 8V12C36 25.2548 25.2548 36 12 36H8C5.79086 36 4 34.2091 4 32V8Z" fill="#4BE4C9"/>
</svg>

<svg xmlns="http://www.w3.org/2000/svg" width="36" height="36" fill="none"><path fill="#F59E0B" d="M0 4a4 4 0 0 1 4-4h24a4 4 0 0 1 4 4v4c0 13.255-10.745 24-24 24H4a4 4 0 0 1-4-4V4Z"/><path fill="#4BE4C9" d="M4 8a4 4 0 0 1 4-4h24a4 4 0 0 1 4 4v4c0 13.255-10.745 24-24 24H8a4 4 0 0 1-4-4V8Z"/></svg>
